public/img/envelope.svg

<svg width="20" height="17" viewBox="0 0 20 17" fill="none" xmlns="http://www.w3.org/2000/svg">
<path d="M1.9196 5.31729C2.1726 5.49863 2.93522 6.03719 4.20752 6.9327C5.47985 7.82821 6.45455 8.51773 7.13164 9.0013C7.20603 9.05431 7.36408 9.16953 7.60585 9.34713C7.84767 9.52485 8.0486 9.66847 8.20848 9.77801C8.36848 9.88752 8.5619 10.0104 8.78894 10.1464C9.0159 10.2822 9.22985 10.3844 9.43074 10.4521C9.63167 10.5203 9.81766 10.5541 9.98876 10.5541H9.99998H10.0112C10.1823 10.5541 10.3684 10.5203 10.5693 10.4521C10.7702 10.3844 10.9843 10.2821 11.2111 10.1464C11.4379 10.0102 11.6314 9.88748 11.7914 9.77801C11.9514 9.66847 12.1521 9.52485 12.394 9.34713C12.6358 9.16937 12.794 9.05431 12.8684 9.0013C13.5528 8.51773 15.294 7.28961 18.0915 5.31705C18.6347 4.93179 19.0884 4.46693 19.453 3.92277C19.8178 3.37885 20 2.80824 20 2.21127C20 1.71242 19.8232 1.28539 19.4697 0.930225C19.1163 0.574983 18.6977 0.397461 18.2142 0.397461H1.78564C1.21276 0.397461 0.771891 0.593922 0.463111 0.986845C0.15437 1.37985 0 1.87108 0 2.4605C0 2.93661 0.20468 3.45254 0.613846 4.00797C1.02297 4.56345 1.45837 4.99993 1.9196 5.31729Z" fill="white" fill-opacity="0.5"/>
<path d="M18.8838 6.5299C16.4435 8.20748 14.5906 9.51124 13.3259 10.4409C12.9018 10.7582 12.5578 11.0059 12.2936 11.1833C12.0294 11.3609 11.678 11.5423 11.2389 11.7274C10.8 11.9127 10.3909 12.0051 10.0114 12.0051H10H9.9888C9.60934 12.0051 9.20006 11.9127 8.76115 11.7274C8.32224 11.5423 7.97061 11.3609 7.70647 11.1833C7.44241 11.0059 7.09826 10.7582 6.6742 10.4409C5.66968 9.69278 3.82075 8.38894 1.12734 6.5299C0.703129 6.24291 0.327387 5.91395 0 5.5437V14.5443C0 15.0434 0.174776 15.4702 0.524523 15.8254C0.874192 16.1807 1.29465 16.3583 1.78575 16.3583H18.2144C18.7053 16.3583 19.1258 16.1807 19.4755 15.8254C19.8253 15.47 20 15.0434 20 14.5443V5.5437C19.68 5.90629 19.3081 6.23525 18.8838 6.5299Z" fill="white" fill-opacity="0.5"/>
</svg>

<svg width="20" height="17" fill="none" xmlns="http://www.w3.org/2000/svg"><path d="M1.92 5.317c.253.182 1.015.72 2.288 1.616C5.48 7.828 6.455 8.518 7.132 9l.474.346c.242.178.443.321.602.431.16.11.354.232.58.368.228.136.442.238.643.306.2.068.387.102.558.102h.022c.171 0 .357-.034.558-.102.201-.068.415-.17.642-.306.227-.136.42-.259.58-.368.16-.11.361-.253.603-.43.242-.179.4-.294.474-.347l5.223-3.684c.544-.385.997-.85 1.362-1.394.365-.544.547-1.115.547-1.712a1.75 1.75 0 0 0-.53-1.28 1.712 1.712 0 0 0-1.256-.534H1.786C1.213.397.772.594.463.987.154 1.38 0 1.87 0 2.46c0 .476.205.992.614 1.547.409.555.844.992 1.306 1.31z" fill="#fff" fill-opacity=".5"/><path d="M18.884 6.53c-2.44 1.677-4.293 2.981-5.558 3.91-.424.318-.768.566-1.032.743a6.335 6.335 0 0 1-1.055.544c-.439.186-.848.278-1.228.278H9.99c-.38 0-.789-.092-1.228-.278a6.34 6.34 0 0 1-1.055-.544 26.323 26.323 0 0 1-1.032-.742C5.67 9.693 3.821 8.389 1.127 6.53A5.939 5.939 0 0 1 0 5.544v9c0 .5.175.926.525 1.281.35.356.77.533 1.26.533h16.43c.49 0 .91-.177 1.26-.533a1.76 1.76 0 0 0 .525-1.28V5.543c-.32.362-.692.691-1.116.986z" fill="#fff" fill-opacity=".5"/></svg>
